X: 13
T:Old Copperplate, The
M:C|
L:1/8
R:Reel
K:ADor
G[|:A2EA cAAe|aged cAFA|G2DG BGBd|gedc BAGB|!
A2EA cAAe|aged cAGB|ABcd efge|1aged cAAG:|2aged cAA2|!
|:ageg a2eg|aged cA~A2|gfef g2ef|gedc BGGB|!
ageg a2eg|aged cAGB|ABcd efge|1aged cAA2:|2aged cAAG|]!
